src/iconfont/glyphs/user-plus.svg

<svg xmlns="http://www.w3.org/2000/svg" viewBox="0 0 1024 1024"><path fill="currentColor" d="M512 556.52c-122.938 0-222.599-99.66-222.599-222.599S389.061 111.322 512 111.322s222.599 99.66 222.599 222.599S634.939 556.52 512 556.52m0-356.158c-73.762 0-133.559 59.797-133.559 133.559S438.238 467.48 512 467.48s133.559-59.797 133.559-133.559S585.762 200.362 512 200.362m415.518 771.676c-24.454-.33-44.19-20.066-44.52-44.488v-.032c0-115.751-62.922-192.919-370.998-192.919s-370.998 77.168-370.998 192.919c0 24.587-19.932 44.52-44.52 44.52s-44.52-19.932-44.52-44.52c0-281.959 322.323-281.959 460.038-281.959s460.038 0 460.038 281.959c-.33 24.454-20.066 44.19-44.488 44.52zm0-311.638c-24.454-.33-44.19-20.066-44.52-44.488v-207.79c0-24.587 19.932-44.52 44.52-44.52s44.52 19.932 44.52 44.52V615.88c-.33 24.454-20.066 44.19-44.488 44.52zm103.878-103.88H823.638c-24.587 0-44.52-19.932-44.52-44.52s19.932-44.52 44.52-44.52h207.758c24.587 0 44.52 19.932 44.52 44.52s-19.932 44.52-44.52 44.52"/></svg>

<?xml version="1.0" encoding="UTF-8" standalone="no"?>
<!DOCTYPE svg PUBLIC "-//W3C//DTD SVG 1.1//EN" "http://www.w3.org/Graphics/SVG/1.1/DTD/svg11.dtd">
<svg width="100%" height="100%" viewBox="0 0 1024 1024" version="1.1" xmlns="http://www.w3.org/2000/svg" xmlns:xlink="http://www.w3.org/1999/xlink" xml:space="preserve" xmlns:serif="http://www.serif.com/" style="fill-rule:evenodd;clip-rule:evenodd;stroke-linejoin:round;stroke-miterlimit:2;">
    <path d="M812.998,556.52L753.638,556.52C729.051,556.52 709.118,536.588 709.118,512C709.118,487.412 729.05,467.48 753.638,467.48L812.998,467.48L812.998,408.122C812.998,383.535 832.93,363.602 857.518,363.602C882.106,363.602 902.038,383.534 902.038,408.122L902.038,467.48L961.396,467.48C985.983,467.48 1005.92,487.412 1005.92,512C1005.92,536.588 985.984,556.52 961.396,556.52L902.038,556.52L902.038,615.88C901.708,640.334 881.972,660.07 857.55,660.4L857.518,660.4C833.064,660.07 813.328,640.334 812.998,615.912L812.998,556.52ZM512,556.52C389.062,556.52 289.401,456.86 289.401,333.921C289.401,210.982 389.061,111.322 512,111.322C634.939,111.322 734.599,210.982 734.599,333.921C734.599,456.86 634.939,556.52 512,556.52ZM512,200.362C438.238,200.362 378.441,260.159 378.441,333.921C378.441,407.683 438.238,467.48 512,467.48C585.762,467.48 645.559,407.683 645.559,333.921C645.559,260.159 585.762,200.362 512,200.362ZM927.518,972.038C903.064,971.708 883.328,951.972 882.998,927.55L882.998,927.518C882.998,811.767 820.076,734.599 512,734.599C203.924,734.599 141.002,811.767 141.002,927.518C141.002,952.105 121.07,972.038 96.482,972.038C71.894,972.038 51.962,952.106 51.962,927.518C51.962,645.559 374.285,645.559 512,645.559C649.715,645.559 972.038,645.559 972.038,927.518C971.708,951.972 951.972,971.708 927.55,972.038L927.518,972.038Z"/>
</svg>
